delete-alert-outline.svg

<svg fill="currentColor" viewBox="0 0 24 24"><path d="M4 19V7h12v12c0 1.1-.9 2-2 2H6c-1.1 0-2-.9-2-2M6 9v10h8V9zm7.5-5H17v2H3V4h3.5l1-1h5zM19 17v-2h2v2zm0-4V7h2v6z"/></svg>

<svg  viewBox="0 0 24 24" fill="currentColor"><path  d="M4 19V7H16V19C16 20.1 15.1 21 14 21H6C4.9 21 4 20.1 4 19M6 9V19H14V9H6M13.5 4H17V6H3V4H6.5L7.5 3H12.5L13.5 4M19 17V15H21V17H19M19 13V7H21V13H19Z"/></svg>
